X:1
T:Je ne mange point de porc
T:Je ne mange point de porc
T:Claudin de Sermisy
C:Claudin de Sermisy
%%score [ 1 2 3 4 ]
L:1/8
Q:1/4=200
M:6/4
K:F
V:1 treble nm="Soprano" snm="S"
V:2 treble nm="Alto" snm="A"
V:3 treble-8 nm="Tenor" snm="T"
V:4 bass nm="Bass" snm="B"
V:1
 z4 A2 A4 c2 | B4 B2 B4 B2 | A4 z2 z2 c4 | c4 A2 B4 B2 | B4 A2 G4 A2 | A4 c2 B4 B2 | B4 B2 A4 A2 | %7
w: Té- tin ref-|fect plus blanc qu'un|oeuf, Té-|tin de sa- tin|blanc tout neuf, Té-|tin qui faict honte|a la ro- se,|
 z4 c2 c4 A2 | B4 B2 B4 A2 |[M:2/2] G4 G2 AA | A4 AA A2- | AF B2 A2 G2 | A2 F2 FF F2 | %13
w: Té- tin plus|beau que nul- le|cho- se, Té- tin|dur, té- tin dur,|* non pas té- tin|voi- re, Mais pe- ti-|
 D2 E2 F2 G2 | G2 B2 BBBB | BB A2 G2 FG | AB c3 B A2 | G2 F3 E/D/ E2 | F2 B2 BBBB | BB A2 G2 FG | %20
w: te bou- le d'i-|voi- re, Au mi- lieu du-|quel est as- sise, U- ne|fraise * ou u- ne|ce- ri- * * *|se, Au mi- lieu du- quel|est as- si- se, U- ne|
 AB c3 B A2 | G2 F3 E/D/ E2 |[M:6/4] F4 F2 F4 F2 | E4 E2 D4 E2 | F4 F2 F4 F2 | E4 E2 D4 E2 | %26
w: fraise ou u- ne ce-|ri- * * * *|se, Que nul ne|voit ne touche aus-|si, Mais ie ga-|ge qu'il est ain-|
[M:2/2] F2 c2 cccc | cc B2 A2 c2 | cccc cc B2 |[M:6/4] A4 B2 B4 B2 | A4 A2 A4 A2 | G4 G2 B4 B2 | %32
w: si, Té- tin donc au pe-|tit bout rou- ge, Té-|tin qui ia- mais ne se bou-|ge, Soit pour ve-|nir soit pour al-|ler, Soit pour cou-|
 B4 B2 A4 A2 |[M:2/2] GG c2 z G c2 | z Gcc GABB | A2 z G A2 z A | A2 A3 G/F/EF | G2 F4 E2 | %38
w: rir soit pour bal-|ler, Té- tin, té- tin,|Té- tin gaul- che, té- tin mi-|gnon, Té- tin, Té-|tin loing * * * de|son com- pai-|
 Fc c2 z G c2 | z Gcc GABB | A2 z G A2 z A | A2 A3 G/F/EF | G2 F2- F2 E2 |[M:6/4] F4 F2 F4 F2 | %44
w: gnon, Té- tin, té- tin,|Té- tin gaul- che, té- tin mi-|gnon, Té- tin, Té-|tin loing * * * de|son com- * pai-|gnon, Té- tin qui|
 G4 B2 A4 G2 | F2 G2 F2 F4 F2 | G4 B2 A4 G2 |[M:3/2] (3:2:2F4 G2 D2 DD DDDD | D8 F4 | F8 F4 | %50
w: por- tes te- moi-|gna- ge Du de- mou-|rant du per- so-|na- ge, Quand on te voit il vient a|mainctz Une|en- vi-|
 F8 F4 | E8 E4 |[M:6/4] D4 A2 A4 A2 | F4 B2 B4 B2 | A4 A2 A4 A2 | F4 B2 B4 B2 | %56
w: e de-|dans les|mains De te tas-|ter de te te-|nir, Mais il se|fault bien con- te-|
[M:2/2] A2 A2 A2 A2 | d6 c2 | B2 A2 G4 | A2 A2 A2 A2 | d6 c2 | B2 A2 G4 | F8 | z4 z2 C2 | %64
w: nir D'en ap- pro-|cher bon|gré ma vi-|e, D'en ap- pro-|cher bon|gré ma vi-|e,|Car|
 F3 G AAAA | G2 F2- F2 E2 |[M:6/4] F4 A2 A4 A2 | F4 F2 B4 B2 |[M:2/2] A2 A2 A2 A2 | d6 c2 | %70
w: il en vien- droit u- ne|autre en- * vy-|e. Mais il se|fault bien con- te-|nir D'en ap- pro-|cher bon|
 B2 A2 G4 | G2 A2 A2 A2 | d6 c2 | B2 A2 G4 | F8 | z4 z2 C2 | F3 G AAAA | G2 F2- F2 E2 | %78
w: gré ma vi-|e, D'en ap- pro-|cher bon|gré ma vi-|e,|Car|il en vien- droit u- ne|autre en- * vy-|
[M:3/2] F8 A4 | A8 c4 | B8 B4 | B8 B4 | A12 | z4 z4 c4 | c8 A4 | B8 B4 | B8 A4 | G8 A4 | A8 c4 | %89
w: e. O|té- tin|ne grand|ne pe-|tit,|Té-|tin meur,|té- tin|d'ap- pé-|tit, Té-|tin qui|
 B8 B4 | B8 B4 | A12 | z4 z4 c4 | c8 A4 | B8 B4 | B8 A4 |[M:2/2] G6 AA | A4 AA A2- | AF B2 A2 G2 | %99
w: nuyct et|iour cri-|ez|Ma-|ri- ez|moy tost,|ma- ri-|ez. A bon|droict, a bon droict|* heu- reux on di-|
 A2 F2 FF F2 | D2 E2 F2 G2- | G2 B2 BBBB | BB A2 G2 FG | AB c3 B A2 | G2 F3 E/D/ E2 | F2 B2 BBBB | %106
w: ra Cel- luy qui de|laict t'em- pli- ra,|* Fai- sant de té- tin|de pu- cel- le Té- tin|de femme en- * tière|et bel- * * *|le, Fai- sant de té- tin|
 BB A2 G2 FG | AB c3 B A2 | G2 F3 E/D/ E2 | F8 |] %110
w: de pu- cel- le Té- tin|de femme en- * tière|et bel- * * *|le.|
V:2
 z4 F2 F4 E2 | G4 G2 G4 G2 | F4 C2 C4 A2 | A4 F2 G4 G2 | F4 F2 E4 F2 | F4 E2 G4 G2 | %6
w: Té- tin ref-|fect plus blanc qu'un|oeuf, té- tin Té-|tin de sa- tin|blanc tout neuf, Té-|tin qui faict honte|
 G4 F2 F3 F C2 | C4 A2 A4 F2 | G4 G2 F4 F2 |[M:2/2] E4 E2 FF | F4 CC C2- | C2 D2 C2 B,2 | %12
w: a la ro- se, té-|tin, Té- tin plus|beau que nul- le|cho- se, Té- tin|dur, non pas té-|* tin voi- *|
 A,3 B,/C/ D4 | z DCC CCDD | E2 FF FFFF | FF F2 D2 DE | FG A3 G/F/EF | D4 C4 | C2 F2 FFFF | %19
w: * * * re,|Mais pe- ti- te bou- le d'i-|voi- re, Au mi- lieu du- quel|est as- si- se, U- ne|fraise ou u- * * ne ce-|ri- *|se, Au mi- lieu du- quel|
 FF F2 D2 DE | FG A3 G/F/EF | D4 C4 |[M:6/4] C4 D2 D4 C2 | C4 C2 D4 C2 | A,4 C2 D4 C2 | %25
w: est as- si- se, U- ne|fraise ou u- * * * ne|ce- ri-|se, Que nul ne|voit ne touche aus-|si, Mais ie ga-|
 C4 C2 D4 C2 |[M:2/2] A,2 A2 AAAA | AA G2 E2 A2 | AAAA AA G2 |[M:6/4] E4 G2 G4 G2 | F4 F2 F4 F2 | %31
w: ge qu'il est ain-|si, Té- tin donc au pe-|tit bout rou- ge, Té-|tin qui ia- mais ne se bou-|ge, Soit pour ve-|nir soit pour al-|
 E4 G2 G4 G2 | F4 F2 F4 F2 |[M:2/2] E3 E E3 E | E3 E DCDD | FFEE F2 z F | F2 z2 z2 C2 | %37
w: ler, Soit pour cou-|rir soit pour bal-|ler, Té- tin, té-|tin, Té- tin gaul- che, té-|tin mi- gnon, Té- tin, té-|tin, té-|
 B,CDB, C2 C2 | A,2 z F E2 z E | E2 z E DCDE | FFEE F2 z F | F2 z2 z C3 | B,CDB, C2 C2 | %43
w: tin loing de son com- pai-|gnon, Té- tin, té-|tin, Té- tin gaul- che, té-|tin mi- gnon, Té- tin, té-|tin, té-|tin loing de son com- pai-|
[M:6/4] A,4 C2 C4 D2 | B,4 F2 F4 D2 | D2 D2 D2 D4 D2 | B,4 F2 F4 D2 | %47
w: gnon, Té- tin qui|por- tes te- moi-|gna- ge Du de- mou-|rant du per- so-|
[M:3/2] (3:2:2D4 B,2 B,2 B,B, B,B,B,B, | B,8 D4 | D8 D4 | C8 C4 | C8 C4 |[M:6/4] A,4 C2 C4 C2 | %53
w: na- ge, Quand on te voit il vient a|mainctz Une|en- vi-|e de-|dans les|mains De te tas-|
 D4 F2 F4 F2 | F4 F2 F4 F2 | D4 D2 D4 D2 |[M:2/2] F2 C2 C2 C2 | B,3 A, G,2 C2 | D2 F2- F2 ED | %59
w: ter de te te-|nir, Mais il se|fault bien con- te-|nir D'en ap- pro-|cher bon gré ma|vi- * * * *|
 E2 C2 C2 C2 | B,3 A, G,2 C2 | D2 F3 E/D/ E2 | F2 F,2 C2 C2 | DDFF E4 | D4 C3 B,/A,/ | D2 B,2 C4 | %66
w: e, D'en ap- pro-|cher bon gré ma|vi- * * * *|e, Car il vien-|droit une autre en- vy-|||
[M:6/4] A,4 D2 D4 D2 | D4 D2 D4 D2 |[M:2/2] F2 C2 C2 C2 | B,3 A, G,2 C2 | D2 F4 ED | E2 C2 C2 C2 | %72
w: e. Mais il se|fault bien con- te-|nir D'en ap- pro-|cher bon gré ma|vi- * * *|e, D'en ap- pro-|
 B,3 A, G,2 C2 | D2 F3 E/D/ E2 | F,2 F2 C2 C2 | DDFF E4 | D4 C3 B,/A,/ | D2 B,2 C4 | %78
w: cher bon gré ma|vi- * * * *|e, Car il vien-|droit une autre en- vy-|||
[M:3/2] A,8 F4 | F8 E4 | G8 G4 | G8 F4 | F8 C4 | C8 A4 | A8 F4 | G8 G4 | F8 F4 | E8 F4 | F8 E4 | %89
w: e. O|té- tin|ne grand|ne pe-|tit, Té-|tin meur,|té- tin|d'ap- pé-|tit, Té-|tin qui|nuyct et|
 G8 G4 | G8 F4 | F4 F4 C4 | C8 A4 | A8 F4 | G8 G4 | F8 F4 |[M:2/2] E6 FF | F6 FF | FF F2 F2 D2 | %99
w: iour cri-|ez Ma-|ri- ez moy|tost, ma-|ri- ez|moy tost,|ma- ri-|ez. A bon|droict, a bon|droict heu- reux on di-|
 D8 | z DCC CCDD | E2 F2 FFFF | FF F2 D2 DE | FG A3 G/F/EF | D4 C4 | C2 F2 FFFF | FF F2 D2 DE | %107
w: ra|Cel- luy qui de laict t'em- pli-|ra, Fai- sant de té- tin|de pu- cel- le Té- tin|de femme en- * * * tière|et bel-|le, Fai- sant de té- tin|de pu- cel- le Té- tin|
 FG A3 G/F/EF | D4 C4 | C8 |] %110
w: de femme en- * * * tière|et bel-|le.|
V:3
 z4 c2 c4 c2 | d4 d2 d4 d2 | d3 BAG A4 F2 | F4 c2 _e4 e2 | d4 c2 c4 c2 | c4 c2 d4 d2 | %6
w: Té- tin ref-|fect plus blanc qu'un|oeuf,- * * * * Té-|tin de sa- tin|blanc tout neuf, Té-|tin qui faict honte|
 d4 d2 c3 c A2 | G4 F2 F4 c2 | _e4 e2 d4 c2 |[M:2/2] c3 c cc c2 | cc c2 z4 | z8 | z4 B2 BB | %13
w: a la ro- se, té-|tin, Té- tin plus|beau que nul- le|cho- se, Té- tin dur,|té- tin dur,||Mais pe- ti-|
 B2 G2 A2 B2 | c2 dd dddd | d2 c2 B4 | A2 FG AB c2 | B2 A2 G4 | F2 d2 dddd | d2 c2 B4 | %20
w: te bou- le d'i-|voi- re, Au mi- lieu du- quel|est as- si-|se, U- ne fraise ou u-|ne ce- ri-|se, Au mi- lieu du- quel|est as- si-|
 A2 FG AB c2 | B2 A2 G4 |[M:6/4] F4 A2 A4 A2 | G4 A2 B2 G4 | F4 A2 A4 A2 | G4 A2 B2 G4 | %26
w: se, U- ne fraise ou u-|ne ce- ri-|se, Que nul ne|voit ne touche aus-|si, Mais ie ga-|ge qu'il est ain-|
[M:2/2] F4 z2 AA | AA d2 c2 z2 | z AAA AA d2 |[M:6/4] c4 d2 d4 d2 | d4 d2 c4 c2 | c4 c2 _e4 e2 | %32
w: si, au pe-|tit bout rou- ge,|qui ia- mais ne se bou-|ge, Soit pour ve-|nir soit pour al-|ler, Soit pour cou-|
 d4 d2 c4 c2 |[M:2/2] c2 z G c2 z G | ccGc BA G2 | z Fcc AFcc | c3 F c3 B/A/ | GGBB A2 G2 | %38
w: rir soit pour bal-|ler, Té- tin, té-|tin gaul- che, té- tin mi- gnon,|Té- tin gaul- che, té- tin mi-|gnon, Té- tin * *|* loing de son com- pai-|
 F3 A c3 G | ccGc BA G2 | z Fcc AFcc | c2 z F c3 B/A/ | GGBB A2 G2 |[M:6/4] F4 A2 A4 A2 | %44
w: gnon, Té- tin, Té-|tin gaul- che, té- tin mi- gnon,|Té- tin gaul- che, té- tin mi-|gnon, Té- tin * *|* loing de son com- pai-|gnon, Té- tin qui|
 G4 d2 c4 B2 | A2 G2 A2 A4 A2 | G4 d2 c4 B2 |[M:3/2] (3:2:2A4 G2 G2 GG GGGG | F8 B4 | B8 B4 | %50
w: por- tes te- moi-|gna- ge Du de- mou-|rant du per- so-|na- ge, Quand on te voit il vient a|mainctz Une|en- vi-|
 A8 A4 | G8 G4 |[M:6/4] F4 F2 F4 F2 | B4 d2 d4 d2 | c4 d2 d4 d2 | A4 A2 B4 B2 |[M:2/2] c4 z2 F2 | %57
w: e de-|dans les|mains De te tas-|ter de te te-|nir, Mais il se|fault bien con- te-|nir D'en|
 F2 F2 B3 A | G2 F2 c4 | c4 z2 F2 | F2 F2 B3 A | G2 F2 c4 | A8 | z2 F2 G3 A | BBBB A2 c2 | %65
w: ap- pro- cher bon|gré ma vi-|e, D'en|ap- pro- cher bon|gré ma vi-|e,|Car il vien-|droit une autre en- vy- *|
 BAGF G4 |[M:6/4] F4 F2 F4 F2 | A4 A2 B4 B2 |[M:2/2] c4 z2 F2 | F2 F2 B3 A | G2 F2 c4 | c4 z2 F2 | %72
w: |e. Mais il se|fault bien con- te-|nir D'en|ap- pro- cher bon|gré ma vi-|e, D'en|
 F2 F2 B3 A | G2 F2 c4 | A8 | z2 F2 G3 A | BBBB A2 c2 | BAGF G4 |[M:3/2] F8 c4 | c8 c4 | d8 d4 | %81
w: ap- pro- cher bon|gré ma vi-|e,|Car il vien-|droit une autre en- vy- *||e. O|té- tin|ne grand|
 d8 d4 | c8 A4 | A8 F4 | F8 c4 | _e8 e4 | d8 c4 | c8 c4 | c8 c4 | d8 d4 | d8 d4 | c4 c4 c4 | %92
w: ne pe-|tit, Té-|tin, té-|tin meur,|té- tin|d'ap- pé-|tit, Té-|tin qui|nuyct et|iour cri-|ez Ma- ri-|
 A8 F4 | F2 F2 F4 c4 | _e4 e2 e2 e2 e2 | d8 c4 |[M:2/2] c4 cc c2 | c2 c2 c4 | A2 d2 c2 B2 | %99
w: ez moy|tost, ma- ri- ez,|Ma- ri- ez moy tost,|ma- ri-|ez. A bon droict,|a bon droict|heu- reux on di-|
 A4 B2 BB | B2 G2 A2 B2 | c2 d2 dddd | d2 c2 B4 | A2 FG AB c2 | B2 A2 G4 | F2 d2 dddd | d2 c2 B4 | %107
w: ra Cel- luy qui|de laict t'em- pli-|ra, Fai- sant de té- tin|de pu- cel-|le Té- tin de femme en-|tière et bel-|le, Fai- sant de té- tin|de pu- cel-|
 A2 FG AB c2 | B2 A2 G4 | F8 |] %110
w: le Té- tin de femme en-|tière et bel-|le.|
V:4
 z4 F,2 F,4 A,2 | G,4 G,2 G,4 B,2 | F,4 F,2 F,4 z2 | z4 F,2 _E,4 E,2 | B,,4 F,2 C,4 F,2 | %5
w: Té- tin ref-|fect plus blanc qu'un|oeuf, Té- tin|de sa- tin|blanc tout neuf, Té-|
 F,4 A,2 G,4 G,2 | G,4 B,2 F,3 F, F,2 | F,4 z2 z4 F,2 | _E,4 E,2 B,,4 F,2 |[M:2/2] C,4 C,2 F,F, | %10
w: tin qui faict honte|a la ro- se, Té-|tin plus|beau que nul- le|cho- se, Té- tin|
 F,4 F,F, F,2 | F,2 B,,2 F,2 G,2 | D,2 D,2 B,,2 B,,B,, | B,,2 C,2 A,,2 G,,2 | %14
w: dur, té- tin dur,|non pas té- tin|voi- re, Mais pe- ti-|te bou- le d'i-|
 C,2 B,,B,, B,,B,,B,,B,, | B,,2 F,2 G,2 D,2- | D,2 z2 F,G,A,F, | G,2 D,F, C,4 | %18
w: voi- re, Au mi- lieu du- quel|est as- si- se,|* U- ne fraise ou|u- ne ce- ri-|
 F,2 B,,2 B,,B,,B,,B,, | B,,2 F,2 G,2 D,2- | D,2 z2 F,G,A,F, | G,2 D,F, C,4 | %22
w: se, Au mi- lieu du- quel|est as- si- se,|* U- ne fraise ou|u- ne ce- ri-|
[M:6/4] F,,4 D,2 D,4 F,2 | C,4 C,2 B,,4 C,2 | D,4 D,2 D,4 F,2 | C,4 C,2 B,,4 C,2 | %26
w: se, Que nul ne|voit ne touche aus-|si, Mais ie ga-|ge qu'il est ain-|
[M:2/2] F,,2 F,2 F,F,F,F, | F,F, G,2 A,2 F,2 | F,F,F,F, F,F, G,2 |[M:6/4] A,4 G,2 G,4 G,2 | %30
w: si, Té- tin donc au pe-|tit bout rou- ge, Té-|tin qui ia- mais ne se bou-|ge, Soit pour ve-|
 D,4 D,2 F,4 F,2 | C,4 _E,2 E,4 E,2 | B,,4 B,,2 F,,4 F,,2 |[M:2/2] C,3 C, C,3 C, | C,4 z4 | %35
w: nir soit pour al-|ler, Soit pour cou-|rir soit pour bal-|ler, Té- tin, té-|tin,|
 z2 z C, F,3 F, | F,3 E,/D,/ C,3 D, | _E,E,B,,D, C,2 C,2 | F,,F,F,F, C,C,C,C, | C,4 z4 | %40
w: Té- tin, té-|tin, * * * Té-|tin gaul- che, té- tin mi-|gnon, Té- tin loing de son com- pai-|gnon,|
 z2 z C, F,2 z F, | F,3 E,/D,/ C,3 D, | _E,E,B,,D, C,2 C,2 |[M:6/4] F,,4 F,2 F,4 D,2 | %44
w: Té- tin té-|tin * * * té-|tin loing de son com- pai-|gnon, Té- tin qui|
 _E,4 B,,2 F,4 G,2 | D,2 G,,2 D,2 D,4 D,2 | _E,4 B,,2 F,4 G,2 | %47
w: por- tes te- moi-|gna- ge Du de- mou-|rant du per- so-|
[M:3/2] (3:2:2D,4 G,,2 B,,2 B,,B,, B,,B,,B,,B,, | B,,8 B,,4 | B,,8 B,,4 | F,,8 F,,4 | C,8 C,4 | %52
w: na- ge, Quand on te voit il vient a|mainctz Une|en- vi-|e de-|dans les|
[M:6/4] D,4 z2 z4 z2 | z4 B,,2 B,,4 B,,2 | F,4 D,2 D,4 D,2 | D,4 D,2 G,4 G,2 | %56
w: mains|De te te-|nir, Mais il se|fault bien con- te-|
[M:2/2] F,2 F,2 F,2 F,2 | B,,4 z4 | z4 z2 C,2 | C,2 C,2 F,2 F,2 | B,,2 B,,2 B,,2 F,,2 | z4 z2 C,2 | %62
w: nir d'en ap- pro-|cher,|D'en|ap- pro- cher, bon|gré ma vi- e,|Car|
 D,3 E, F,F,F,F, | B,,2 D,2 C,4 | B,,C,D,E, F,4 | B,,2 D,2 C,4 |[M:6/4] F,,4 D,2 D,4 D,2 | %67
w: il vien- droit une autre en-|vi- e, u-|ne * * * *|autre en- vi-|e. Mais il se|
 D,4 D,2 G,4 G,2 |[M:2/2] F,2 F,2 F,2 F,2 | B,,4 z4 | z4 z2 C,2 | C,2 C,2 F,2 F,2 | %72
w: fault bien con- te-|nir d'en ap- pro-|cher,,|D'en|ap- pro- cher bon|
 B,,2 B,,2 B,,2 F,,2 | z4 z2 C,2 | D,3 E, F,F,F,F, | B,,2 D,2 C,4 | B,,C,D,E, F,4 | B,,2 D,2 C,4 | %78
w: gré ma vi- e,|Car|il vien- droit une autre en-|vi- e. u-|ne * * * *|autre en- vi-|
[M:3/2] F,,8 F,4 | F,8 A,4 | G,8 G,4 | G,8 B,4 | F,8 F,4 | F,8 z4 | z4 z4 F,4 | _E,6 E,2 E,2 E,2 | %86
w: e. O|té- tin|ne grand|ne pe-|tit, té-|tin,|Té-|tin meur, té- tin|
 B,,8 F,4 | C,8 F,4 | F,8 A,4 | G,8 G,4 | G,8 B,4 | F,4 F,4 F,2 F,2 | F,8 z4 | z4 z4 F,4 | %94
w: d'ap- pé-|tit, Té-|tin qui|nuyct et|iour cri-|ez Ma- ri- ez|moy;|Ma-|
 _E,2 E,2 E,4 E,4 | B,,8 F,4 |[M:2/2] C,6 F,F, | F,4 F,F, F,2 | F,2 B,,2 F,2 G,2 | %99
w: ri- ez moy tost,|ma- ri-|ez. A bon|droict, a bon droict|heu- reux on di-|
 D,4 B,,2 B,,B,, | B,,2 C,2 A,,2 G,,2 | C,2 B,,2 B,,B,,B,,B,, | B,,2 F,2 G,2 D,2- | %103
w: ra * luy qui|de laict t'em- pli-|ra, Fai- sant de té- tin|de pu- cel- le|
 D,2 z2 F,G,A,F, | G,2 D,F, C,4 | F,2 B,,2 B,,B,,B,,B,, | B,,2 F,2 G,2 D,2- | D,2 z2 F,G,A,F, | %108
w: * Té- tin de femme|en- tière et bel-|le, Fai- sant de té- tin|de pu- cel- le|* Té- tin de femme|
 G,2 D,F, C,4 | F,,8 |] %110
w: en- tière et bel-|le.|

